X:1
T: The Abbey Reel
N:
C:aka "Reddigan's"
S:
A:
O:
R:
M:4/4
K:G
I:speed 232
%W:
% voice 1 (1 lines, 47 notes)
K:G
M:4/4
L:1/16
A6 B2 A4 G2 E2 |A4 G2 A2 B2 d2 d2 B2 |A6 B2 A2 G2 E2 F2 |G6 A2 B2 e2 d2 B2 |A6 B2 A4 G2 E2 |A4 G2 A2 B2 d2 d2 B2 |A6 B2 A2 G2 E2 F2 |G6 A2 B2 d2 d4 |
%W:
% voice 1 (1 lines, 57 notes)
e2 g2 g4 a4 b2 a2 |g2 a2 b2 g2 a2 g2 e2 d2 |e2 g2 g4 a4 g2 a2 |b2 g2 a2 f2 g2 e2 d2 g2 |e2 g2 g4 a2 g2 b2 g2 |a2 g2 b2 g2 a2 g2 e2 d2 |e2 g2 g4 a4 g2 a2 |b2 g2 a2 f2 g2 e2 d2 B2 |
%W:
% voice 1 (1 lines, 50 notes)
A6 B2 A4 G2 E2 |A4 G2 A2 B2 e2 d2 B2 |A6 B2 A2 G2 E2 D2 |G6 A2 B2 G2 d2 B2 |A6 B2 A4 G2 E2 |A4 G2 A2 B2 e2 d2 B2 |A2 d2 B2 G2 A2 G2 E2 D2 |G6 A2 B2 G2 B2 d2 |
%W:
% voice 1 (1 lines, 55 notes)
e2 g2 g4 a4 g2 e2 |g2 a2 b2 g2 a2 g2 e2 d2 |e2 g2 g4 a4 g2 a2 |b2 g2 a2 f2 g2 e2 d4 |e2 g2 g4 a2 g2 e2 g2 |a2 g2 b2 g2 a2 g2 e2 g2 |d2 g2 g4 a4 g2 a2 |b4 a2 f2 g2 e2 d2 B2 ||
